X: 35618
T: Safe House
R: reel
M: 4/4
K: Gmajor
GABd e2ge|edBG AGED|GABd edBd|edgd edBA|
GABd e2ge|edBG AGED|GABd egdB|1 GBAF G3F:|2 GBAF G3 a||
bg~g2 eg~g2|degb ageg|dg~g2 ag~g2|a2 gb a3a|
b2ag eg~g2|d2BG AGED|GABd egdB|1 GBAF G3a:|2 GBAF G3F||

